X: 4
T: Hand Me Down The Tackle
R: reel
M: 4/4
L: 1/8
K: Dmaj
dD D/D/D EDFA | dfaf gfec | dD D/D/D FDAD | BFAF EFAB |dD D/D/D EDFA | dfaf gfeg | f2 eg fdAF | GFED CDBc |dD D/D/D EDFA | dfaf gfec | dcde fdAF | GFED CDBc |dD D/D/D EDFA | dfaf gfeg | f2 eg fdAF | GFED CDBc |||: d2 fd Adfd | d/d/d fd gfec | dcde fdAF | GFED CDBc |[1 d2 fd Adfd | cdef g2 fg | afge faec | dBAF EDCD :|[2 ~a3 b afdf | ~g2 gf gbag | f2 eg fdAF | GFED CDBc |]


Tune 800	Setting 13949

